app/assets/images/icons/active/google-plus.svg

<?xml version="1.0" encoding="UTF-8" standalone="no"?>
<svg width="32px" height="232px" viewBox="0 0 32 232" version="1.1" xmlns="http://www.w3.org/2000/svg" xmlns:xlink="http://www.w3.org/1999/xlink" xmlns:sketch="http://www.bohemiancoding.com/sketch/ns">
    <title>google-plus</title>
    <description>Created with Sketch (http://www.bohemiancoding.com/sketch)</description>
    <defs></defs>
    <g id="Social" stroke="none" stroke-width="1" fill="none" fill-rule="evenodd" sketch:type="MSPage">
        <path d="M23.2741096,11.2579806 L23.2741096,15.0658853 L22.3433804,15.0658853 L22.3433804,11.2579806 L18.6189768,11.2579806 L18.6189768,10.3071446 L22.3433804,10.3071446 L22.3433804,6.5 L23.2741096,6.5 L23.2741096,10.3071446 L27,10.3071446 L27,11.2579806 L23.2741096,11.2579806 L23.2741096,11.2579806 L23.2741096,11.2579806 L23.2741096,11.2579806 Z M15.7242009,7.44855588 L13.897682,7.44855588 C15.1086707,7.92663413 15.7531932,9.36922954 15.7531932,10.849828 C15.7531932,12.0925274 15.0796783,13.1611729 14.1266473,13.9227538 C13.1988917,14.6645732 13.0219639,14.975438 13.0219639,15.6055284 C13.0219639,16.1436515 14.0181118,17.0595248 14.5392309,17.438035 C16.0594715,18.5348028 16.5515983,19.5578446 16.5515983,21.2603808 C16.5515983,23.387791 14.5392309,25.5 10.8936271,25.5 C7.69777658,25.5 5,24.1714137 5,22.0455236 C5,19.886951 7.46286409,17.8059045 10.6579712,17.8059045 C11.0051362,17.8059045 11.3262824,17.7952636 11.6556059,17.7952636 C11.2170034,17.362029 10.8713253,16.8277062 10.8713253,16.1702536 C10.8713253,15.7795824 10.9939853,15.4041123 11.1634791,15.0712057 C10.9895249,15.0833667 10.8133405,15.0864069 10.6304656,15.0864069 C8.00554166,15.0864069 6.24592823,13.1786543 6.24592823,10.8133451 C6.24592823,8.49667973 8.6745962,6.5 11.2564033,6.5 L17.0102724,6.5 L15.7242009,7.44855588 L15.7242009,7.44855588 L15.7242009,7.44855588 L15.7242009,7.44855588 Z M11.2668108,18.3523882 C9.05521389,18.3288263 7.07778604,19.7296184 7.07778604,21.4131531 C7.07778604,23.1308905 8.67310941,24.5605648 10.8832196,24.5605648 C13.9891194,24.5605648 15.0707576,23.2182975 15.0707576,21.50056 C15.0707576,21.2930634 15.0462256,21.0908873 14.9993918,20.8940315 C14.7585321,19.9226738 13.8961952,19.4407953 12.6985876,18.5864869 C12.2614719,18.4443555 11.7819828,18.3577086 11.2668108,18.3523882 C11.2668108,18.3523882 11.7819828,18.3577086 11.2668108,18.3523882 L11.2668108,18.3523882 L11.2668108,18.3523882 Z M13.6858147,10.9653572 C13.4286004,8.97323786 12.0183821,7.37559005 10.5345678,7.33150652 C9.05372711,7.28514281 8.05757924,8.80982479 8.31628033,10.800424 C8.57052105,12.7933035 9.97999595,14.4433955 11.4638102,14.4882391 L11.5262553,14.4882391 C12.9728999,14.4882391 13.9355951,12.9278342 13.6858147,10.9653572 L13.6858147,10.9653572 Z M13.6858147,10.9653572" id="google-plus--title-grey" fill="#3A434E" sketch:type="MSShapeGroup"></path>
        <path d="M23.2741096,51.2579806 L23.2741096,55.0658853 L22.3433804,55.0658853 L22.3433804,51.2579806 L18.6189768,51.2579806 L18.6189768,50.3071446 L22.3433804,50.3071446 L22.3433804,46.5 L23.2741096,46.5 L23.2741096,50.3071446 L27,50.3071446 L27,51.2579806 L23.2741096,51.2579806 L23.2741096,51.2579806 L23.2741096,51.2579806 L23.2741096,51.2579806 Z M15.7242009,47.4485559 L13.897682,47.4485559 C15.1086707,47.9266341 15.7531932,49.3692295 15.7531932,50.849828 C15.7531932,52.0925274 15.0796783,53.1611729 14.1266473,53.9227538 C13.1988917,54.6645732 13.0219639,54.975438 13.0219639,55.6055284 C13.0219639,56.1436515 14.0181118,57.0595248 14.5392309,57.438035 C16.0594715,58.5348028 16.5515983,59.5578446 16.5515983,61.2603808 C16.5515983,63.387791 14.5392309,65.5 10.8936271,65.5 C7.69777658,65.5 5,64.1714137 5,62.0455236 C5,59.886951 7.46286409,57.8059045 10.6579712,57.8059045 C11.0051362,57.8059045 11.3262824,57.7952636 11.6556059,57.7952636 C11.2170034,57.362029 10.8713253,56.8277062 10.8713253,56.1702536 C10.8713253,55.7795824 10.9939853,55.4041123 11.1634791,55.0712057 C10.9895249,55.0833667 10.8133405,55.0864069 10.6304656,55.0864069 C8.00554166,55.0864069 6.24592823,53.1786543 6.24592823,50.8133451 C6.24592823,48.4966797 8.6745962,46.5 11.2564033,46.5 L17.0102724,46.5 L15.7242009,47.4485559 L15.7242009,47.4485559 L15.7242009,47.4485559 L15.7242009,47.4485559 Z M11.2668108,58.3523882 C9.05521389,58.3288263 7.07778604,59.7296184 7.07778604,61.4131531 C7.07778604,63.1308905 8.67310941,64.5605648 10.8832196,64.5605648 C13.9891194,64.5605648 15.0707576,63.2182975 15.0707576,61.50056 C15.0707576,61.2930634 15.0462256,61.0908873 14.9993918,60.8940315 C14.7585321,59.9226738 13.8961952,59.4407953 12.6985876,58.5864869 C12.2614719,58.4443555 11.7819828,58.3577086 11.2668108,58.3523882 C11.2668108,58.3523882 11.7819828,58.3577086 11.2668108,58.3523882 L11.2668108,58.3523882 L11.2668108,58.3523882 Z M13.6858147,50.9653572 C13.4286004,48.9732379 12.0183821,47.37559 10.5345678,47.3315065 C9.05372711,47.2851428 8.05757924,48.8098248 8.31628033,50.800424 C8.57052105,52.7933035 9.97999595,54.4433955 11.4638102,54.4882391 L11.5262553,54.4882391 C12.9728999,54.4882391 13.9355951,52.9278342 13.6858147,50.9653572 L13.6858147,50.9653572 Z M13.6858147,50.9653572" id="google-plus--title-grey-copy" fill="#67737B" sketch:type="MSShapeGroup"></path>
        <path d="M23.2741096,91.2579806 L23.2741096,95.0658853 L22.3433804,95.0658853 L22.3433804,91.2579806 L18.6189768,91.2579806 L18.6189768,90.3071446 L22.3433804,90.3071446 L22.3433804,86.5 L23.2741096,86.5 L23.2741096,90.3071446 L27,90.3071446 L27,91.2579806 L23.2741096,91.2579806 L23.2741096,91.2579806 L23.2741096,91.2579806 L23.2741096,91.2579806 Z M15.7242009,87.4485559 L13.897682,87.4485559 C15.1086707,87.9266341 15.7531932,89.3692295 15.7531932,90.849828 C15.7531932,92.0925274 15.0796783,93.1611729 14.1266473,93.9227538 C13.1988917,94.6645732 13.0219639,94.975438 13.0219639,95.6055284 C13.0219639,96.1436515 14.0181118,97.0595248 14.5392309,97.438035 C16.0594715,98.5348028 16.5515983,99.5578446 16.5515983,101.260381 C16.5515983,103.387791 14.5392309,105.5 10.8936271,105.5 C7.69777658,105.5 5,104.171414 5,102.045524 C5,99.886951 7.46286409,97.8059045 10.6579712,97.8059045 C11.0051362,97.8059045 11.3262824,97.7952636 11.6556059,97.7952636 C11.2170034,97.362029 10.8713253,96.8277062 10.8713253,96.1702536 C10.8713253,95.7795824 10.9939853,95.4041123 11.1634791,95.0712057 C10.9895249,95.0833667 10.8133405,95.0864069 10.6304656,95.0864069 C8.00554166,95.0864069 6.24592823,93.1786543 6.24592823,90.8133451 C6.24592823,88.4966797 8.6745962,86.5 11.2564033,86.5 L17.0102724,86.5 L15.7242009,87.4485559 L15.7242009,87.4485559 L15.7242009,87.4485559 L15.7242009,87.4485559 Z M11.2668108,98.3523882 C9.05521389,98.3288263 7.07778604,99.7296184 7.07778604,101.413153 C7.07778604,103.13089 8.67310941,104.560565 10.8832196,104.560565 C13.9891194,104.560565 15.0707576,103.218297 15.0707576,101.50056 C15.0707576,101.293063 15.0462256,101.090887 14.9993918,100.894032 C14.7585321,99.9226738 13.8961952,99.4407953 12.6985876,98.5864869 C12.2614719,98.4443555 11.7819828,98.3577086 11.2668108,98.3523882 C11.2668108,98.3523882 11.7819828,98.3577086 11.2668108,98.3523882 L11.2668108,98.3523882 L11.2668108,98.3523882 Z M13.6858147,90.9653572 C13.4286004,88.9732379 12.0183821,87.37559 10.5345678,87.3315065 C9.05372711,87.2851428 8.05757924,88.8098248 8.31628033,90.800424 C8.57052105,92.7933035 9.97999595,94.4433955 11.4638102,94.4882391 L11.5262553,94.4882391 C12.9728999,94.4882391 13.9355951,92.9278342 13.6858147,90.9653572 L13.6858147,90.9653572 Z M13.6858147,90.9653572" id="google-plus--title-grey-copy-2" fill="#FFFFFF" sketch:type="MSShapeGroup"></path>
        <path d="M23.2741096,131.257981 L23.2741096,135.065885 L22.3433804,135.065885 L22.3433804,131.257981 L18.6189768,131.257981 L18.6189768,130.307145 L22.3433804,130.307145 L22.3433804,126.5 L23.2741096,126.5 L23.2741096,130.307145 L27,130.307145 L27,131.257981 L23.2741096,131.257981 L23.2741096,131.257981 L23.2741096,131.257981 L23.2741096,131.257981 Z M15.7242009,127.448556 L13.897682,127.448556 C15.1086707,127.926634 15.7531932,129.36923 15.7531932,130.849828 C15.7531932,132.092527 15.0796783,133.161173 14.1266473,133.922754 C13.1988917,134.664573 13.0219639,134.975438 13.0219639,135.605528 C13.0219639,136.143651 14.0181118,137.059525 14.5392309,137.438035 C16.0594715,138.534803 16.5515983,139.557845 16.5515983,141.260381 C16.5515983,143.387791 14.5392309,145.5 10.8936271,145.5 C7.69777658,145.5 5,144.171414 5,142.045524 C5,139.886951 7.46286409,137.805904 10.6579712,137.805904 C11.0051362,137.805904 11.3262824,137.795264 11.6556059,137.795264 C11.2170034,137.362029 10.8713253,136.827706 10.8713253,136.170254 C10.8713253,135.779582 10.9939853,135.404112 11.1634791,135.071206 C10.9895249,135.083367 10.8133405,135.086407 10.6304656,135.086407 C8.00554166,135.086407 6.24592823,133.178654 6.24592823,130.813345 C6.24592823,128.49668 8.6745962,126.5 11.2564033,126.5 L17.0102724,126.5 L15.7242009,127.448556 L15.7242009,127.448556 L15.7242009,127.448556 L15.7242009,127.448556 Z M11.2668108,138.352388 C9.05521389,138.328826 7.07778604,139.729618 7.07778604,141.413153 C7.07778604,143.13089 8.67310941,144.560565 10.8832196,144.560565 C13.9891194,144.560565 15.0707576,143.218297 15.0707576,141.50056 C15.0707576,141.293063 15.0462256,141.090887 14.9993918,140.894032 C14.7585321,139.922674 13.8961952,139.440795 12.6985876,138.586487 C12.2614719,138.444356 11.7819828,138.357709 11.2668108,138.352388 C11.2668108,138.352388 11.7819828,138.357709 11.2668108,138.352388 L11.2668108,138.352388 L11.2668108,138.352388 Z M13.6858147,130.965357 C13.4286004,128.973238 12.0183821,127.37559 10.5345678,127.331507 C9.05372711,127.285143 8.05757924,128.809825 8.31628033,130.800424 C8.57052105,132.793303 9.97999595,134.443395 11.4638102,134.488239 L11.5262553,134.488239 C12.9728999,134.488239 13.9355951,132.927834 13.6858147,130.965357 L13.6858147,130.965357 Z M13.6858147,130.965357" id="google-plus--title-grey-copy-3" fill="#206FAC" sketch:type="MSShapeGroup"></path>
    </g>
</svg>

<svg width="32" height="232" viewBox="0 0 32 232" xmlns="http://www.w3.org/2000/svg" xmlns:sketch="http://www.bohemiancoding.com/sketch/ns"><title>google-plus</title><g sketch:type="MSPage" fill="none"><path d="M23.274 11.258v3.808h-.931v-3.808h-3.724v-.951h3.724v-3.807h.931v3.807h3.726v.951h-3.726zm-7.55-3.809h-1.827c1.211.478 1.856 1.921 1.856 3.401 0 1.243-.674 2.311-1.627 3.073-.928.742-1.105 1.053-1.105 1.683 0 .538.996 1.454 1.517 1.833 1.52 1.097 2.012 2.12 2.012 3.822 0 2.127-2.012 4.24-5.658 4.24-3.196 0-5.894-1.329-5.894-3.454 0-2.159 2.463-4.24 5.658-4.24l.998-.011c-.439-.433-.784-.968-.784-1.625 0-.391.123-.766.292-1.099l-.533.015c-2.625 0-4.385-1.908-4.385-4.273 0-2.317 2.429-4.313 5.01-4.313h5.754l-1.286.949zm-4.457 10.904c-2.212-.024-4.189 1.377-4.189 3.061 0 1.718 1.595 3.147 3.805 3.147 3.106 0 4.188-1.342 4.188-3.06 0-.207-.025-.41-.071-.607-.241-.971-1.103-1.453-2.301-2.308-.437-.142-.917-.229-1.432-.234zm2.419-7.387c-.257-1.992-1.667-3.59-3.151-3.634-1.481-.046-2.477 1.478-2.218 3.469.254 1.993 1.664 3.643 3.148 3.688h.062c1.447 0 2.409-1.56 2.16-3.523zm0 0" fill="#3A434E" sketch:type="MSShapeGroup"/><path d="M23.274 51.258v3.808h-.931v-3.808h-3.724v-.951h3.724v-3.807h.931v3.807h3.726v.951h-3.726zm-7.55-3.809h-1.827c1.211.478 1.856 1.921 1.856 3.401 0 1.243-.674 2.311-1.627 3.073-.928.742-1.105 1.053-1.105 1.683 0 .538.996 1.454 1.517 1.833 1.52 1.097 2.012 2.12 2.012 3.822 0 2.127-2.012 4.24-5.658 4.24-3.196 0-5.894-1.329-5.894-3.454 0-2.159 2.463-4.24 5.658-4.24l.998-.011c-.439-.433-.784-.968-.784-1.625 0-.391.123-.766.292-1.099l-.533.015c-2.625 0-4.385-1.908-4.385-4.273 0-2.317 2.429-4.313 5.01-4.313h5.754l-1.286.949zm-4.457 10.904c-2.212-.024-4.189 1.377-4.189 3.061 0 1.718 1.595 3.147 3.805 3.147 3.106 0 4.188-1.342 4.188-3.06 0-.207-.025-.41-.071-.607-.241-.971-1.103-1.453-2.301-2.308-.437-.142-.917-.229-1.432-.234zm2.419-7.387c-.257-1.992-1.667-3.59-3.151-3.634-1.481-.046-2.477 1.478-2.218 3.469.254 1.993 1.664 3.643 3.148 3.688h.062c1.447 0 2.409-1.56 2.16-3.523zm0 0" fill="#67737B" sketch:type="MSShapeGroup"/><path d="M23.274 91.258v3.808h-.931v-3.808h-3.724v-.951h3.724v-3.807h.931v3.807h3.726v.951h-3.726zm-7.55-3.809h-1.827c1.211.478 1.856 1.921 1.856 3.401 0 1.243-.674 2.311-1.627 3.073-.928.742-1.105 1.053-1.105 1.683 0 .538.996 1.454 1.517 1.833 1.52 1.097 2.012 2.12 2.012 3.822 0 2.127-2.012 4.24-5.658 4.24-3.196 0-5.894-1.329-5.894-3.454 0-2.159 2.463-4.24 5.658-4.24l.998-.011c-.439-.433-.784-.968-.784-1.625 0-.391.123-.766.292-1.099l-.533.015c-2.625 0-4.385-1.908-4.385-4.273 0-2.317 2.429-4.313 5.01-4.313h5.754l-1.286.949zm-4.457 10.904c-2.212-.024-4.189 1.377-4.189 3.061 0 1.718 1.595 3.147 3.805 3.147 3.106 0 4.188-1.342 4.188-3.06 0-.207-.025-.41-.071-.607-.241-.971-1.103-1.453-2.301-2.308-.437-.142-.917-.229-1.432-.234zm2.419-7.387c-.257-1.992-1.667-3.59-3.151-3.634-1.481-.046-2.477 1.478-2.218 3.469.254 1.993 1.664 3.643 3.148 3.688h.062c1.447 0 2.409-1.56 2.16-3.523zm0 0" fill="#fff" sketch:type="MSShapeGroup"/><path d="M23.274 131.258v3.808h-.931v-3.808h-3.724v-.951h3.724v-3.807h.931v3.807h3.726v.951h-3.726zm-7.55-3.809h-1.827c1.211.478 1.856 1.921 1.856 3.401 0 1.243-.674 2.311-1.627 3.073-.928.742-1.105 1.053-1.105 1.683 0 .538.996 1.454 1.517 1.833 1.52 1.097 2.012 2.12 2.012 3.822 0 2.127-2.012 4.24-5.658 4.24-3.196 0-5.894-1.329-5.894-3.454 0-2.159 2.463-4.24 5.658-4.24l.998-.011c-.439-.433-.784-.968-.784-1.625 0-.391.123-.766.292-1.099l-.533.015c-2.625 0-4.385-1.908-4.385-4.273 0-2.317 2.429-4.313 5.01-4.313h5.754l-1.286.949zm-4.457 10.904c-2.212-.024-4.189 1.377-4.189 3.061 0 1.718 1.595 3.147 3.805 3.147 3.106 0 4.188-1.342 4.188-3.06 0-.207-.025-.41-.071-.607-.241-.971-1.103-1.453-2.301-2.308-.437-.142-.917-.229-1.432-.234zm2.419-7.387c-.257-1.992-1.667-3.59-3.151-3.634-1.481-.046-2.477 1.478-2.218 3.469.254 1.993 1.664 3.643 3.148 3.688h.062c1.447 0 2.409-1.56 2.16-3.523zm0 0" fill="#206FAC" sketch:type="MSShapeGroup"/></g></svg>
